files/icons/star.svg

<svg width="22" height="22" viewBox="0 0 22 22" fill="none" xmlns="http://www.w3.org/2000/svg">
<path d="M10.1588 2.38295C10.4148 1.61451 10.5427 1.2303 10.7321 1.12381C10.8958 1.03165 11.093 1.03165 11.2569 1.12381C11.4461 1.2303 11.5741 1.61451 11.8301 2.38295L13.5223 7.4631C13.5952 7.68181 13.6316 7.79116 13.6973 7.87259C13.7552 7.94453 13.8292 8.0006 13.9127 8.03591C14.0071 8.0759 14.1181 8.07825 14.3399 8.08297L19.4929 8.19255C20.2725 8.20912 20.6622 8.21742 20.8178 8.37234C20.9523 8.50641 21.0133 8.70216 20.9799 8.8932C20.9414 9.11396 20.6308 9.35964 20.0095 9.85122L15.9022 13.1004C15.7254 13.2404 15.6371 13.3103 15.5831 13.4006C15.5354 13.4804 15.5072 13.5711 15.5008 13.6648C15.4936 13.771 15.5257 13.8817 15.59 14.1034L17.0825 19.2513C17.3082 20.03 17.4211 20.4194 17.328 20.6215C17.2474 20.7966 17.0878 20.9175 16.9034 20.9435C16.6903 20.9734 16.3704 20.7411 15.7304 20.2764L11.4997 17.2044C11.3176 17.0722 11.2266 17.0061 11.1276 16.9803C11.0401 16.9577 10.9487 16.9577 10.8613 16.9803C10.7624 17.0061 10.6712 17.0722 10.4891 17.2044L6.2585 20.2764C5.61857 20.7411 5.2986 20.9734 5.0855 20.9435C4.90108 20.9175 4.74151 20.7966 4.6609 20.6215C4.56776 20.4194 4.68065 20.03 4.90641 19.2513L6.39892 14.1034C6.46317 13.8817 6.4953 13.771 6.48807 13.6648C6.48167 13.5711 6.45343 13.4804 6.40578 13.4006C6.35185 13.3103 6.26343 13.2404 6.08662 13.1004L1.97944 9.85122C1.35817 9.35964 1.04754 9.11396 1.00898 8.8932C0.975593 8.70216 1.03655 8.50641 1.17116 8.37234C1.32669 8.21742 1.71643 8.20913 2.49589 8.19255L7.64894 8.08297C7.87078 8.07825 7.98171 8.0759 8.07621 8.03591C8.15969 8.0006 8.23365 7.94453 8.29163 7.87259C8.35728 7.79116 8.3937 7.68181 8.46656 7.4631L10.1588 2.38295Z" stroke="#F6B17A" stroke-width="2" stroke-linecap="round" stroke-linejoin="round"/>
</svg>

<svg width="22" height="22" fill="none" xmlns="http://www.w3.org/2000/svg">
  <path d="M10.159 2.383c.256-.768.384-1.153.573-1.26a.533.533 0 0 1 .525 0c.19.107.317.492.573 1.26l1.692 5.08c.073.219.11.328.175.41a.554.554 0 0 0 .216.163c.094.04.205.042.427.047l5.153.11c.78.016 1.17.024 1.325.18.134.133.195.33.162.52-.039.221-.35.467-.97.958l-4.108 3.25c-.177.14-.265.21-.319.3a.594.594 0 0 0-.082.264c-.007.106.025.217.089.438l1.492 5.148c.226.779.34 1.168.246 1.37a.555.555 0 0 1-.425.323c-.213.03-.533-.203-1.173-.668l-4.23-3.072c-.182-.132-.273-.198-.372-.224a.531.531 0 0 0-.267 0c-.099.026-.19.092-.372.224l-4.23 3.072c-.64.465-.96.697-1.174.668a.555.555 0 0 1-.424-.322c-.093-.203.02-.592.245-1.37L6.4 14.102c.064-.221.096-.332.09-.438a.595.595 0 0 0-.083-.264c-.054-.09-.143-.16-.32-.3L1.98 9.85c-.62-.491-.931-.737-.97-.958a.593.593 0 0 1 .162-.52c.156-.156.545-.164 1.325-.18l5.153-.11c.222-.005.333-.007.427-.047a.555.555 0 0 0 .216-.163c.065-.082.102-.191.175-.41l1.692-5.08Z" stroke="#F6B17A" stroke-width="2" stroke-linecap="round" stroke-linejoin="round"/>
</svg>
